!!!COM: Haydn, Franz Joseph
!!!OTL: String Quartet in B-flat Major
!!!OPS: Opus 76
!!!ONM: No. 4
!!!OMD: Allegro con spirito
!!!OMV: 1
!!!SCT: H III:78
!!!SCA: Thematisch-bibliographisches Werkevererzeichnis (A. van Hoboken)
!!!YOR: Trautwein Edition
!!!ENC: Frances Bennion
!!!CDT: 1732/3/31/-1809/5/31/
!!!CNT: Oesterreich
!!!YEC: Copyright (c) 1994, 2000 Center for Computer Assisted Research in the Humanities
!!!YEM: Rights to all derivative editions reserved.
!!!YEM: Refer to licensing agreement for further details.
!!!YEN: United States of America
**kern	**kern	**kern	**kern
*k[b-e-]	*k[b-e-]	*k[b-e-]	*k[b-e-]
*B-:	*B-:	*B-:	*B-:
*clefF4	*clefC3	*clefF	*clefF
*M4/4	*M4/4	*M4/4	*M4/4
[1BB-	[1F	[1d	2.r
.	.	.	4e
=2	=2	=2	=2
1BB-_	1F_	1d_	4.f
.	.	.	8a
.	.	.	8b-
.	.	.	8a
.	.	.	8b-
.	.	.	8dd
=3	=3	=3	=3
1BB-_	1F_	1d_	4.ff
.	.	.	8a
.	.	.	8b-
.	.	.	8dd
.	.	.	8ff
.	.	.	8aa
=4	=4	=4	=4
1BB-]	1F]	1d]	4.bb-
.	.	.	8aa
.	.	.	8gg
.	.	.	8ff
.	.	.	8ee-
.	.	.	8dd
=5	=5	=5	=5
4E-	4c	4g	4cc
4r	4r	4r	4r
4D	4G 4f	4b	4dd
4r	4r	4r	4r
=6	=6	=6	=6
4C	4G 4e-	4cc	4ee-
2.r	2.r	2.r	2.r
=7	=7	=7	=7
[1FF	[1A	[1e-	2.r
.	.	.	4B
=8	=8	=8	=8
1FF_	1A_	1e-_	4.c
.	.	.	8d
.	.	.	8e-
.	.	.	8f
.	.	.	8a
.	.	.	8cc
=9	=9	=9	=9
1FF_	1A_	1e-_	4.ee-
.	.	.	8b
.	.	.	8cc
.	.	.	8dd
.	.	.	8ee-
.	.	.	8ff#
=10	=10	=10	=10
1FF]	1A]	1e-]	4.gg
.	.	.	8ff
.	.	.	8ee-
.	.	.	8dd
.	.	.	8ee-
.	.	.	8cc
=11	=11	=11	=11
4GG	4B-	4d	4b-
4r	4r	4r	4r
4FF	4e-	4a	4cc
4r	4r	4r	4r
=12	=12	=12	=12
4BB-	4d	4b-	4dd
2.r	2.r	2.r	2.r
=13	=13	=13	=13
2.d	4.r	[1b-	2.ff
.	8e	.	.
.	8f	.	.
.	8b-	.	.
4c#	8g	.	4ee
.	8b-	.	.
=14	=14	=14	=14
2.d	4.f	1b-_	2.ff
.	8e	.	.
.	8f	.	.
.	8b-	.	.
4c#	8g	.	4ee
.	8b-	.	.
=15	=15	=15	=15
2.d	4.f	1b-_	2.ff
.	8e	.	.
.	8f	.	.
.	8b-	.	.
4D	8a-	.	4ff#
.	8b-	.	.
=16	=16	=16	=16
1E-	2g	2b-]	4.gg
.	.	.	8ff#
.	[2B-	2d-	8gg
.	.	.	8ff#
.	.	.	8gg
.	.	.	8bb-
=17	=17	=17	=17
1F	2B-]	2d	4.ff
.	.	.	8dd
.	4.A	8c	8ee-
.	.	8B	8dd
.	.	8c	8ee-
.	8c	8e-	8a
=18	=18	=18	=18
1G	1B-	[1d	4.b-
.	.	.	8a
.	.	.	8b-
.	.	.	8a
.	.	.	8b-
.	.	.	8dd
=19	=19	=19	=19
1F	1A-	1d]	4.b-
.	.	.	8a
.	.	.	8b-
.	.	.	8a
.	.	.	8b-
.	.	.	8dd
=20	=20	=20	=20
2E-	1G	1d-	4.b-
.	.	.	8a
2E	.	.	8b-
.	.	.	8a
.	.	.	8b-
.	.	.	8gg
=21	=21	=21	=21
1F	2B-	2d	4.ff
.	.	.	8dd
.	4.A	8c	8ee-
.	.	8B	8dd
.	.	8c	8ee-
.	8c	8e-	8a
=22	=22	=22	=22
4BB-	8B-	8d	16b-
.	.	.	16a
.	8r	8r	16b-
.	.	.	16dd
4r	8B-	8d	16f
.	.	.	16g
.	8c	8e-	16e-
.	.	.	16f
4BB-	8d	8f	16d
.	.	.	16b-
.	8r	8r	16a
.	.	.	16b-
4r	8B-	8d	16f
.	.	.	16g
.	8c	8e-	16e-
.	.	.	16f
=23	=23	=23	=23
8BB-	8d	8f	16d
.	.	.	16b-
8r	8r	8r	16a
.	.	.	16b-
8BB-	8d	8f	16f
.	.	.	16dd
8r	8r	8r	16cc#
.	.	.	16dd
8BB-	8d	8f	16b-
.	.	.	16ff
8r	8r	8r	16gg
.	.	.	16ff
8BB-	8d	8f	16ee-
.	.	.	16dd
8r	8r	8r	16cc
.	.	.	16b-
=24	=24	=24	=24
4BB-	8c	8a 8e-	16a
.	.	.	16ee-
.	8r	8r	16dd
.	.	.	16ee-
4r	8A	8c	16cc
.	.	.	16dd
.	8B-	8d	16b-
.	.	.	16cc
4BB-	8c	8e-	16a
.	.	.	16e-
.	8r	8r	16d
.	.	.	16e-
4r	8A	8c	16c
.	.	.	16e-
.	8B-	8d	16B-
.	.	.	16e-
=25	=25	=25	=25
8BB-	8c	8e-	16A
.	.	.	16g
8r	8r	8r	16f
.	.	.	16g
8BB-	8c	8e- 8a	16e-
.	.	.	16cc
8r	8r	8r	16b-
.	.	.	16cc
8BB-	8c	8e- 8a	16a
.	.	.	16ee-
8r	8r	8r	16dd
.	.	.	16ee-
8BB-	8c	8a 8e-	16a
.	.	.	16gg
8r	8r	8r	16ff
.	.	.	16ee-
=26	=26	=26	=26
4BB-	8B-	16b-	8dd
.	.	16a	.
.	8r	16b-	8r
.	.	16dd	.
4r	8B-	16f	8dd
.	.	16g	.
.	8c	16e-	8ee-
.	.	16f	.
4BB-	8d	16d	8ff
.	.	16b-	.
.	8r	16a	8r
.	.	16b-	.
4r	8B-	16f	8dd
.	.	16g	.
.	8c	16e-	8ee-
.	.	16f	.
=27	=27	=27	=27
8BB-	1d	16d	2ff
.	.	16dd	.
8B-	.	16cc	.
.	.	16dd	.
8B-	.	16ee-	.
.	.	16dd	.
8B-	.	16cc	.
.	.	16dd	.
8AA	.	16d	2ff#
.	.	16cc	.
8A	.	16b	.
.	.	16cc	.
8A	.	16dd	.
.	.	16cc	.
8A	.	16b	.
.	.	16cc	.
=28	=28	=28	=28
8GG	2d	16b-	4gg
.	.	16a	.
8G	.	16b-	.
.	.	16dd	.
8G	.	16b-	8.gg
.	.	16a	.
8G	.	16b-	.
.	.	16gg	16gg
8DD	4f#	16ff#	4aa
.	.	16gg	.
8D	.	16aa	.
.	.	16ff#	.
8D	16f#	16dd	8.aa
.	16g	16ee-	.
8D	16f#	16dd	.
.	16a	16cc	16aa
=29	=29	=29	=29
8G	16b-	16b-	8bb- 8dd
.	16dd	16bb-	.
8r	16cc	16aa	8r
.	16b-	16gg	.
8D	16a	16ff#	8dd 8ddd
.	16cc	16aa	.
8r	16b-	16gg	8r
.	16a	16ff#	.
8G	16b-	16gg	8bb- 8dd
.	16dd	16bb-	.
8r	16cc	16aa	8r
.	16b-	16gg	.
8D	16a	16ff#	8ddd 8dd
.	16cc	16aa	.
8r	16b-	16gg	8r
.	16a	16ff#	.
=30	=30	=30	=30
8GG	16b-	16gg	8bb- 8dd
.	16dd	16bb-	.
8G	16cc	16aa	8dd 8bb-
.	16b-	16gg	.
8DD	16a	16ff#	8ddd 8dd
.	16cc	16aa	.
8D	16b-	16gg	8dd 8ddd
.	16a	16ff#	.
8GG	16b-	16gg	8bb- 8dd
.	16dd	16bb-	.
8G	16cc	16aa	8dd 8bb-
.	16b-	16gg	.
8DD	16a	16ff#	8ddd 8dd
.	16cc	16aa	.
8D	16b-	16gg	8dd 8ddd
.	16a	16ff#	.
=31	=31	=31	=31
8GG	4g	16gg	16bb-
.	.	16bb-	16ddd
8G	.	16aa	16ccc
.	.	16gg	16bb-
8AA	4cc	16ff#	16aa
.	.	16aa	16ccc
8A	.	16gg	16bb-
.	.	16ff#	16aa
8BB-	4dd	8gg	16gg
.	.	.	16bb-
8B-	.	4dd	16aa
.	.	.	16gg
8BB	4g	.	16ff
.	.	.	16aa
8B	.	8dd	16gg
.	.	.	16ff
=32	=32	=32	=32
8C	8g	16cc	4ee
.	.	16ee	.
8c	16e	16gg	.
.	16f	16ff	.
8c	16g	16ee	4ccc
.	16e	16gg	.
8c	16f	16ff	.
.	16g	16ee	.
8c	2a-	16dd	4bb
.	.	16ee	.
8c	.	16ff	.
.	.	16dd	.
8c	.	16b	4fff
.	.	16cc	.
8c	.	16dd	.
.	.	16b	.
=33	=33	=33	=33
8C	8g	16cc	4eee
.	.	16ee	.
8c	16e	16gg	.
.	16f	16ff	.
8c	16g	16ee	4ccc
.	16e	16gg	.
8c	16f	16ff	.
.	16g	16ee	.
8c	2a-	16dd	4bb
.	.	16ee	.
8c	.	16ff	.
.	.	16dd	.
8c	.	16b	4fff
.	.	16cc	.
8c	.	16dd	.
.	.	16b	.
=34	=34	=34	=34
8C	8g	16cc	4eee
.	.	16ee	.
8c	16e	16gg	.
.	16f	16ff	.
8c	16g	16ee	4ccc
.	16e	16gg	.
8c	16f	16ff	.
.	16g	16ee	.
8c	2a-	16ff	4aa-
.	.	16ee	.
8c	.	16ff	.
.	.	16ee	.
8c	.	8ff	4b
8c	.	8f	.
=35	=35	=35	=35
4c	4g	8e	8cc
.	.	16c	16cc
.	.	16B	16b
4.r	4.r	16c	16cc
.	.	16B	16b
.	.	16c	16cc
.	.	16B	16b
.	.	8c	8cc
16C	16c	16c	16c
16BB	16B	16B	16B
16C	16c	16c	16c
16BB	16B	16B	16B
16C	16c	16c	16c
16BB	16B	16B	16B
=36	=36	=36	=36
4C	4c	4c	4c
2.r	8r	2.r	8r
.	8cc	.	8ccc
.	8b	.	8bb
.	8cc	.	8ccc
.	8b-	.	8bb-
.	8g	.	8gg
=37	=37	=37	=37
2.r	[1f	[1cc	[1aa
4e	.	.	.
=38	=38	=38	=38
4.f	1f_	1cc_	1aa_
8B	.	.	.
8c	.	.	.
8G#	.	.	.
8A	.	.	.
8E	.	.	.
=39	=39	=39	=39
4.F	1f]	1cc_	1aa]
8C	.	.	.
8BB-	.	.	.
8AA	.	.	.
8GG	.	.	.
8FF	.	.	.
=40	=40	=40	=40
4EE	[1e	1cc_	[1bb-
2r	.	.	.
4f#	.	.	.
=41	=41	=41	=41
4.g	1e_	1cc_	1bb-_
8f#	.	.	.
8g	.	.	.
8f#	.	.	.
8g	.	.	.
8f#	.	.	.
=42	=42	=42	=42
4.g	1e_	1cc_	1bb-_
8d#	.	.	.
8e	.	.	.
8B	.	.	.
8c	.	.	.
8F#	.	.	.
=43	=43	=43	=43
8G	1e]	1cc]	1bb-]
8E	.	.	.
8C	.	.	.
8GG	.	.	.
8FF	.	.	.
8EE	.	.	.
8DD	.	.	.
8CC	.	.	.
=44	=44	=44	=44
8FF	8f	4.cc	4.aa-
4F	4A-	.	.
8G	8B-	8b-	8gg
8A-	8c	8a-	8ff
8B-	8d-	8g	8ee
8A-	8c	8a-	8ff
8G	8B-	8b-	8gg
=45	=45	=45	=45
4.F	4.A-	4.cc	4.aa-
8G	8B-	8b-	8gg
8A-	8c	8a-	8ff
8B-	8d-	8g	8ee
8A-	8c	8a-	8ff
8G	8B-	8b-	8gg
=46	=46	=46	=46
8F	8A-	8cc	8aa-
4F	4A-	4cc	4aa-
8C	8E-	8A-	8gg-
8D-	8F	8a-	8ff
8E-	8G-	8g-	8ee-
8F	8A-	8f	8dd-
8E-	8G-	8g-	8ee-
=47	=47	=47	=47
8D-	8F	8a-	8ff
4D-	4F	4a-	4ff
8AA	8C	8cc	8ee-
8BB-	8D-	8f	8dd-
8C	8E-	8e-	8cc
8D-	8F	8d-	8b-
8C	8E-	8e-	8cc
=48	=48	=48	=48
8BB-	8D-	[2f	8dd-
4BB-	4D-	.	4dd-
8C	8E-	.	8cc
8D-	8F	8f]	8b-
8C	8E-	8g-	8a
8D-	8F	8f	8b-
8C	8E-	8g-	8a
=49	=49	=49	=49
2D-	1F	4.f	2b-
.	.	8g	.
2DD-	.	8a-	2b
.	.	8g	.
.	.	8a-	.
.	.	8f	.
=50	=50	=50	=50
16CC	4G	8e	8cc
16C	.	.	.
16BB	.	8r	8r
16C	.	.	.
16EE	4r	8cc	8ee
16C	.	.	.
16DD	.	8dd	8ff
16C	.	.	.
16CC	4c 4C	8ee	8gg
16C	.	.	.
16BB	.	8r	8r
16C	.	.	.
16EE	4r	8cc	8ee
16C	.	.	.
16DD	.	8dd	8ff
16C	.	.	.
=51	=51	=51	=51
16CC	4c 4C	8ee	8gg
16C	.	.	.
16BB	.	8r	8r
16C	.	.	.
16EE	4r	8ee	8gg
16C	.	.	.
16DD	.	8ff	8aa
16C	.	.	.
16CC	2e	16gg	16bb-
16C	.	16ff	16aa
16CC	.	16ee	16gg
16C	.	16dd	16ff
16CC	.	16cc	16ee
16C	.	16b-	16dd
16CC	.	16a	16cc
16C	.	16g	16b-
=52	=52	=52	=52
4FF	16f	8f	8a
.	16f	.	.
.	16e	8r	8r
.	16f	.	.
4r	16c	8ff	8aa
.	16f	.	.
.	16B-	8gg	8bb-
.	16f	.	.
4FF	16A	8aa	8ccc
.	16f	.	.
.	16e	8r	8r
.	16f	.	.
4r	16c	8ff	8aa
.	16f	.	.
.	16B-	8gg	8bb-
.	16f	.	.
=53	=53	=53	=53
4FF	16A	8aa	8ccc
.	16f	.	.
.	16e	8r	8r
.	16f	.	.
4r	16c	8ff	8aa
.	16f	.	.
.	16B-	8gg	8bb-
.	16f	.	.
4FF	8A	8aa	8ccc
.	8a	8cc	8fff
4r	8a	8cc	8fff
.	8a	8cc	8fff
=54	=54	=54	=54
1r	16g	16b-	16eee
.	16a	16cc	16fff
.	16g	16b-	16eee
.	16a	16cc	16fff
.	16f	16a	16ddd
.	16g	16b-	16eee
.	16f	16a	16ddd
.	16g	16b-	16eee
.	16e	16g	16ccc
.	16f	16a	16ddd
.	16e	16g	16ccc
.	16f	16a	16ddd
.	16d	16f	16bb-
.	16e	16g	16ccc
.	16d	16f	16bb-
.	16e	16g	16ccc
=55	=55	=55	=55
2r	16c	16e	16aa
.	16d	16f	16bb-
.	16c	16e	16aa
.	16d	16f	16bb-
.	16B-	16d	16gg
.	16c	16e	16aa
.	16B-	16d	16gg
.	16c	16e	16aa
8AA	8A	8c	4ff
8AA	8c	8f	.
8AA	8c	8f	4eee-
8AA	8c	8f	.
=56	=56	=56	=56
8BB-	4d	2f	2ddd
8BB-	.	.	.
8BB-	2B-	.	.
8BB-	.	.	.
8BB-	.	4g	4eee
8BB-	.	.	.
8BB	4B	4g#	4fff
8BB	.	.	.
=57	=57	=57	=57
4C	[1c	8a	16fff
.	.	.	16ccc
.	.	8g#	16eee
.	.	.	16ccc
2.r	.	8a	16fff
.	.	.	16ccc
.	.	8g#	16eee
.	.	.	16ccc
.	.	8a	16fff
.	.	.	16ccc
.	.	8g#	16eee
.	.	.	16ccc
.	.	8a	16fff
.	.	.	16ccc
.	.	8g#	16eee
.	.	.	16ccc
=58	=58	=58	=58
16CC	1c_	4a	8fff
16FF	.	.	.
16EE	.	.	8r
16FF	.	.	.
16CC	.	2a 2f	8ccc
16AA	.	.	.
16GG	.	.	8r
16AA	.	.	.
16CC	.	.	8aa
16C	.	.	.
16BB	.	.	8r
16C	.	.	.
16CC	.	4ff	8ff
16F	.	.	.
16E	.	.	8r
16F	.	.	.
=59	=59	=59	=59
4CC	2c]	1ee	1gg
4r	.	.	.
2C	2B-	.	.
=60	=60	=60	=60
4F	4A	8ff	8ff
.	.	8aa	8ccc
4.r	4.r	8aa	8ccc
.	.	8aa	8ccc
.	.	8aa	8ccc
8a	8cc	8r	8r
8r	8r	8ff	8aa
8f	8a	8r	8r
=61	=61	=61	=61
8r	8r	8bb-	8ddd
8b-	8dd	8r	8r
8r	8r	8gg	8bb-
8g	8b-	8r	8r
8r	8r	8ee	8gg
8e	8g	8r	8r
8r	8r	8gg	8ccc
8c	8e	8r	8r
=62	=62	=62	=62
4f	8f	8ff	4aa
.	8a	8cc	.
2.r	8a	8cc	4.r
.	8a	8cc	.
.	8a	8cc	.
.	8r	8r	8fff
.	8f	8a	8r
.	8r	8r	8eee
=63	=63	=63	=63
1r	8b-	8dd	8r
.	8r	8r	8ddd
.	8g	8b-	8r
.	8r	8r	8ddd-
.	8e	8g	8r
.	8r	8r	8ccc
.	8c	8e	8r
.	8r	8r	8bb-
=64	=64	=64	=64
2r	4f	4f	8aa
.	.	.	8ccc
.	4.r	4.r	8ccc
.	.	.	8ccc
8r	.	.	8ccc
8c	8g	8b-	8ee
8c	8g	8b-	8ee
8c	8g	8b-	8ee
=65	=65	=65	=65
4F	4a	4a	8ff
.	.	.	8ccc
4.r	4.r	4.r	8ccc
.	.	.	8ccc
.	.	.	8ccc
8c	8g	8b-	8ee
8c	8g	8b-	8ee
8c	8g	8b-	8ee
=66	=66	=66	=66
16F	16f	16a 16f	16ff
16F	16c	16f 16a	16ee
16F	16c	16f 16a	16ff
16F	16c	16f 16a	16aa
16F	16c	16a 16f	16cc
16F	16c	16a 16f	16aa
16F	16c	16a 16f	16gg
16F	16c	16f 16a	16ff
16F	16c	16b- 16e	16ee
16F	16c	16b- 16e	16ff#
16F	16c	16b- 16e	16gg
16F	16c	16b- 16e	16ff#
16F	16c	16b- 16e	16gg
16F	16c	16e 16b-	16bb-
16F	16c	16e 16b-	16aa
16F	16c	16b- 16e	16gg
=67	=67	=67	=67
16FF	16c	16a 16f	16ff
16FF	16c	16a 16f	16ee
16FF	16c	16f 16a	16ff
16FF	16c	16a 16f	16aa
16FF	16c	16a 16f	16cc
16FF	16c	16f 16a	16aa
16FF	16c	16f 16a	16gg
16FF	16c	16f 16a	16ff
16FF	16c	16b- 16e	16ee
16FF	16c	16b- 16e	16ff#
16FF	16c	16b- 16e	16gg
16FF	16c	16e 16b-	16ff#
16FF	16c	16e 16b-	16gg
16FF	16c	16b- 16e	16bb-
16FF	16c	16b- 16e	16aa
16FF	16c	16b- 16e	16gg
=68	=68	=68	=68
4FF	4c	4a 4f	4ff
4FF	4c	4a 4f	4cc 4aa
4FF	4c	4f 4a	4a 4ff
4r	4r	4r	4r
=69	=69	=69	=69
[1DD	[1F	[1A	2.r
.	.	.	4c#
=70	=70	=70	=70
1DD_	1F_	1A_	4.d
.	.	.	8e
.	.	.	8f
.	.	.	8e
.	.	.	8f
.	.	.	8g#
=71	=71	=71	=71
1DD_	1F_	1A_	4.a
.	.	.	8cc#
.	.	.	8dd
.	.	.	8cc#
.	.	.	8dd
.	.	.	8ff
=72	=72	=72	=72
2.DD]	1F]	1A]	4.gg#
.	.	.	8aa
.	.	.	8gg
.	.	.	8ff
4F	.	.	8ee
.	.	.	8dd
=73	=73	=73	=73
4E	4E	4g	4cc#
4r	4r	4r	4r
4D	4F	4f	4dd
4r	4r	4r	4r
=74	=74	=74	=74
4C#	4G	4e	4ee
2.r	2.r	2.r	2.r
=75	=75	=75	=75
[1FF#	[1E-	[1A	2.r
.	.	.	4B
=76	=76	=76	=76
1FF#_	1E-_	1A_	4.c
.	.	.	8B
.	.	.	8c
.	.	.	8e-
.	.	.	8f#
.	.	.	8a
=77	=77	=77	=77
1FF#_	1E-_	1A_	4.cc
.	.	.	8b
.	.	.	8cc
.	.	.	8ee-
.	.	.	8ff#
.	.	.	8aa
=78	=78	=78	=78
1FF#_	1E-]	1A_	4.ccc
.	.	.	8bb-
.	.	.	8aa
.	.	.	8gg
.	.	.	8ff#
.	.	.	8aa
=79	=79	=79	=79
1FF#]	1D	1A]	4.cc
.	.	.	8b
.	.	.	8cc
.	.	.	8ee-
.	.	.	8a
.	.	.	8cc
=80	=80	=80	=80
16GG	4D	8B-	8b-
16G	.	.	.
16F#	.	8r	8r
16G	.	.	.
16BB-	4r	8b-	8gg
16G	.	.	.
16AA	.	8cc	8aa
16G	.	.	.
16GG	4G	8dd	8bb-
16G	.	.	.
16F#	.	8r	8r
16G	.	.	.
16BB-	8d	8b-	8gg
16G	.	.	.
16AA	8c	8cc	8aa
16G	.	.	.
=81	=81	=81	=81
1GG	1B-	1dd	16bb-
.	.	.	16ccc
.	.	.	16ddd
.	.	.	16ccc
.	.	.	16bb-
.	.	.	16aa
.	.	.	16gg
.	.	.	16ff#
.	.	.	16gg
.	.	.	16ff
.	.	.	16ee-
.	.	.	16dd
.	.	.	16cc
.	.	.	16b-
.	.	.	16a
.	.	.	16g
=82	=82	=82	=82
4D	16d	8a 8d	8f#
.	16dd	.	.
.	16cc#	8r	8r
.	16dd	.	.
4r	16f#	8ff#	8aa
.	16dd	.	.
.	16e	8gg	8bb-
.	16dd	.	.
4FF#	16d	8aa	8ccc
.	16dd	.	.
.	16cc#	8r	8r
.	16dd	.	.
4r	16f#	8f#	8aa
.	16dd	.	.
.	16e	8g	8bb-
.	16dd	.	.
=83	=83	=83	=83
1F#	1d	1a	16ccc
.	.	.	16ddd
.	.	.	16eee-
.	.	.	16ddd
.	.	.	16ccc
.	.	.	16bb-
.	.	.	16aa
.	.	.	16gg
.	.	.	16ff#
.	.	.	16aa
.	.	.	16a
.	.	.	16b-
.	.	.	16cc
.	.	.	16ee-
.	.	.	16dd
.	.	.	16cc
=84	=84	=84	=84
4G	8d	16b-	8b-
.	.	16g	.
.	8r	16f#	8r
.	.	16g	.
4r	16d	16B-	16bb-
.	16e-	16c	16aa
.	16d	16B-	16bb-
.	16c	16A	16ccc
4G	8B-	16G	8ddd
.	.	16b-	.
.	8r	16a	8r
.	.	16b-	.
4r	16d	16B-	16bb-
.	16e-	16c	16aa
.	16d	16B-	16bb-
.	16c	16A	16ccc
=85	=85	=85	=85
4G	8B-	4G	8ddd
.	8r	.	16ddd
.	.	.	16eee-
2BB-	2f 2A-	2A- 2d	8fff
.	.	.	16fff
.	.	.	16ggg
.	.	.	4aaa-
4BB-	4f	4A- 4f	4A- 4d
=86	=86	=86	=86
4EE-	8g	8e- 8G	16G 16e-
.	.	.	16e-
.	8r	8r	16d
.	.	.	16e-
4r	8e-	8g	16B-
.	.	.	16e-
.	8f	8a-	16A-
.	.	.	16e-
4EE-	8g	8b-	16G
.	.	.	16e-
.	8r	8r	16d
.	.	.	16e-
4r	8e-	8g	16B-
.	.	.	16e-
.	8f	8a-	16A-
.	.	.	16e-
=87	=87	=87	=87
1EE	1g	2.b-	16G
.	.	.	16d-
.	.	.	16c
.	.	.	16d-
.	.	.	16c
.	.	.	16d-
.	.	.	16c
.	.	.	16d-
.	.	.	16G
.	.	.	16c
.	.	.	16B
.	.	.	16c
.	.	8cc	16G
.	.	.	16B-
.	.	8dd-	16A
.	.	.	16B-
=88	=88	=88	=88
4FF	8a-	8cc	16A-
.	.	.	16f
.	8r	8r	16e
.	.	.	16f
4r	8f	8a-	16c
.	.	.	16f
.	8g	8b-	16B-
.	.	.	16f
4FF	8a-	8cc	16A-
.	.	.	16f
.	8r	8r	16e
.	.	.	16f
4r	8f	8a-	16c
.	.	.	16f
.	8g	8b-	16B-
.	.	.	16f
=89	=89	=89	=89
1FF#	1a	2.cc	16A
.	.	.	16e-
.	.	.	16d
.	.	.	16e-
.	.	.	16d
.	.	.	16e-
.	.	.	16d
.	.	.	16e-
.	.	.	16A
.	.	.	16d
.	.	.	16c#
.	.	.	16d
.	.	8dd	16A
.	.	.	16c
.	.	8ee-	16B
.	.	.	16c
=90	=90	=90	=90
8GG	4b-	4dd	16B-
.	.	.	16g
8G	.	.	16f#
.	.	.	16g
8G	2b-	2dd	16d
.	.	.	16b-
8G	.	.	16a
.	.	.	16b-
8G	.	.	16g
.	.	.	16dd
8G	.	.	16cc#
.	.	.	16dd
8G	4b-	4dd	16b-
.	.	.	16gg
8G	.	.	16ff#
.	.	.	16gg
=91	=91	=91	=91
8AA	16a	16cc	8ff#
.	16cc	16ee-	.
8A	16b-	16dd	8r
.	16cc	16ee-	.
8A	8a	16cc	8aa
.	.	16b-	.
8A	8f#	16a	8r
.	.	16g	.
8A	4d	16f#	8ccc
.	.	16g	.
8A	.	16a	8r
.	.	16b-	.
8A	4d	16cc	8ff#
.	.	16ee-	.
8A	.	16dd	8r
.	.	16cc	.
=92	=92	=92	=92
8BB-	4d	8b-	8gg
8B-	.	16dd	8r
.	.	16cc#	.
8B-	2g	16dd	8bb-
.	.	16cc#	.
8B-	.	16dd	8r
.	.	16cc#	.
8B-	.	8dd	8ddd
8B-	.	16gg	8r
.	.	16ff#	.
8B-	4dd	16gg	8ddd
.	.	16ff#	.
8B-	.	16gg	8r
.	.	16ff#	.
=93	=93	=93	=93
16E-	4ee-	4gg	4.ddd
16e-	.	.	.
16d	.	.	.
16e-	.	.	.
16d	4r	4gg	.
16e-	.	.	.
16d	.	.	16eee-
16e-	.	.	16ddd
4A	16A	4.gg	4ccc
.	16a	.	.
.	16g#	.	.
.	16a	.	.
4r	16g#	.	4ccc
.	16a	.	.
.	16g#	16aa	.
.	16a	16gg	.
=94	=94	=94	=94
16D	4d	4ff#	4.ccc
16d	.	.	.
16c#	.	.	.
16d	.	.	.
16c#	4r	4ff#	.
16d	.	.	.
16c#	.	.	16ddd
16d	.	.	16ccc
4G	16G	4gg	4bb-
.	16g	.	.
.	16f#	.	.
.	16g	.	.
4r	16f#	4dd	4bb-
.	16g	.	.
.	16f#	.	.
.	16g	.	.
=95	=95	=95	=95
4c	4e-	4ee-	4aa
4r	4r	4r	4r
4d	4d	4cc	4ff# 4a
4r	4r	4r	4r
=96	=96	=96	=96
4g	4d	8b-	8gg
.	.	8bb-	8ddd
4.r	4.r	8bb-	8ddd
.	.	8bb-	8ddd
.	.	8bb-	8ddd
8b-	8dd	8r	8r
8r	8r	8gg	8bb-
8g	8b-	8r	8r
=97	=97	=97	=97
8r	8r	8ccc	8eee-
8cc	8ee-	8r	8r
8r	8r	8aa	8ccc
8a	8cc	8r	8r
8r	8r	8ff#	8aa
8f#	8a	8r	8r
8r	8r	8ff#	8ddd
8d	8a	8r	8r
=98	=98	=98	=98
4g	8b-	8gg	4bb-
.	8b-	8dd	.
2.r	8b-	8dd	4.r
.	8b-	8dd	.
.	8b-	8dd	.
.	8r	8r	8gg
.	8a	8cc	8r
.	8r	8r	8ff
=99	=99	=99	=99
1r	8G	8B-	8r
.	8g	8b-	8ee-
.	8g	8b-	8ee-
.	8g	8b-	8ee-
.	8g	8b-	8r
.	8r	8r	8ee-
.	8f	8a	8r
.	8r	8r	8dd
=100	=100	=100	=100
1r	8E-	8G	8r
.	8e-	8g	8cc
.	8e-	8g	8cc
.	8e-	8g	8cc
.	8e-	8g	8r
.	8r	8r	8cc
.	8d	8f	8r
.	8r	8r	8b
=101	=101	=101	=101
2r	8e-	8g	8r
.	8r	8r	8cc
.	8d	8f	8r
.	8r	8r	8b
4g	8e-	8g	8r
.	8r	8r	8cc
4a-	8d	8f	8r
.	8r	8r	8b
=102	=102	=102	=102
4g	8e-	8g	8r
.	8r	8r	8cc
4d	8f	8a-	8r
.	8r	8r	8b
4e-	8e-	8g	8r
.	8r	8r	8cc
4e	8e	8g	8r
.	8r	8r	8b-
=103	=103	=103	=103
4f	8f	8f	4a
.	8A	8f	.
4.r	8A	8f	4r
.	8A	8f	.
.	8A	8f	4cc
8F	8r	8r	.
8r	8B-	8e	4dd-
8F	8r	8r	.
=104	=104	=104	=104
4FF	8r	8r	4cc
.	8A	8f	.
4.r	8A	8f	4r
.	8A	8f	.
.	8A	8f	4c
8F	8r	8r	.
8r	8B-	8e	4d-
8F	8r	8r	.
=105	=105	=105	=105
4FF	8r	8r	4c
.	8c	8e-	.
4.r	8c	8e-	4r
.	8c	8e-	.
.	8c	8e-	4A
8F	8r	8r	.
8r	8B	8d	4B
8F	8r	8r	.
=106	=106	=106	=106
4FF	8r	8r	4c
.	8c	8e-	.
4.r	8c	8e-	4r
.	8B-	8e-	.
.	8A	8e-	4c
8F	8r	8r	.
8r	8B	8f	4d
8F	8r	8r	.
=107	=107	=107	=107
8FF	8r	8r	4e-
8r	8c	8e-	.
8GG	8r	8r	2.r
8r	8c	8e-	.
8AA-	8r	8r	.
8r	8c	8e-	.
8AA	8r	8r	.
8r	8c	8e-	.
=108	=108	=108	=108
[1BB-	[1F	[1d	2.r
.	.	.	4e
=109	=109	=109	=109
1BB-_	1F_	1d_	4.f
.	.	.	8a
.	.	.	8b-
.	.	.	8a
.	.	.	8b-
.	.	.	8dd
=110	=110	=110	=110
1BB-_	1F_	1d_	4.ff
.	.	.	8a
.	.	.	8b-
.	.	.	8dd
.	.	.	8ff
.	.	.	8aa
=111	=111	=111	=111
1BB-]	1F]	1d]	4.bb-
.	.	.	8aa
.	.	.	8gg
.	.	.	8ff
.	.	.	8ee-
.	.	.	8dd
=112	=112	=112	=112
4E-	4c	4g	4cc
4r	4r	4r	4r
4GG 4D	4f 4G	4b 4d	4f 4dd
4r	4r	4r	4r
=113	=113	=113	=113
4CC 4C	4e- 4G	4cc 4e- 4G	4ee- 4e- 4G
2.r	2.r	2.r	2.r
=114	=114	=114	=114
[1FF	[1A	[1e-	2.r
.	.	.	4B
=115	=115	=115	=115
1FF_	1A_	1e-_	4.c
.	.	.	8d
.	.	.	8e-
.	.	.	8f
.	.	.	8a
.	.	.	8cc
=116	=116	=116	=116
1FF_	1A_	1e-_	4.ee-
.	.	.	8b
.	.	.	8cc
.	.	.	8dd
.	.	.	8ee-
.	.	.	8ff#
=117	=117	=117	=117
1FF]	1A]	1e-]	4.gg
.	.	.	8ff
.	.	.	8ee-
.	.	.	8dd
.	.	.	8ee-
.	.	.	8cc
=118	=118	=118	=118
4GG	4B-	4d	4b- 4d
4r	4r	4r	4r
4FF	4c 4e-	4a 4e-	4f 4cc 4A
4r	4r	4r	4r
=119	=119	=119	=119
4BB-	4d 4B-	4b- 4d	4dd 4f 4B-
2.r	2.r	2.r	2.r
=120	=120	=120	=120
2.d	4.r	[1b-	2.ff
.	8e	.	.
.	8f	.	.
.	8b-	.	.
4c#	8g	.	4ee
.	8b-	.	.
=121	=121	=121	=121
2.d	4.f	1b-_	2.ff
.	8e	.	.
.	8f	.	.
.	8b-	.	.
4c#	8g	.	4ee
.	8b-	.	.
=122	=122	=122	=122
2.d	4.f	1b-]	2.ff
.	8e	.	.
.	8f	.	.
.	8b-	.	.
4c	8a-	.	4ff#
.	8b-	.	.
=123	=123	=123	=123
1B	[1g	1dd	4.gg
.	.	.	8ff#
.	.	.	8gg
.	.	.	8aa-
.	.	.	8dd
.	.	.	8ff
=124	=124	=124	=124
1c	1g]	4.cc	[1ee-
.	.	8b	.
.	.	8cc	.
.	.	8ee-	.
.	.	8g	.
.	.	8b-	.
=125	=125	=125	=125
2.C	4.e-	[1a-	2.ee-]
.	8d	.	.
.	8e-	.	.
.	8a-	.	.
4BB	8f	.	4dd
.	8a-	.	.
=126	=126	=126	=126
2.C	4.e-	1a-_	2.ee-
.	8d	.	.
.	8e-	.	.
.	8a-	.	.
4BB	8f	.	4dd
.	8a-	.	.
=127	=127	=127	=127
2C	2e-	4.a-]	1ee-
.	.	16e-	.
.	.	16f	.
2BB-	2d-	8g-	.
.	.	8f	.
.	.	8g-	.
.	.	8b-	.
=128	=128	=128	=128
2.AA	2.c	[1f	4.ee-
.	.	.	8dd
.	.	.	8ee-
.	.	.	8gg-
4GG#	4B	.	8dd
.	.	.	8ff
=129	=129	=129	=129
2.AA	2.c	1f_	4.ee-
.	.	.	8dd
.	.	.	8ee-
.	.	.	8gg-
4GG#	4B	.	8dd
.	.	.	8ff
=130	=130	=130	=130
1AA	1c	1f_	4.ee-
.	.	.	8dd
.	.	.	8ee-
.	.	.	8gg-
.	.	.	8cc
.	.	.	8ee-
=131	=131	=131	=131
4BB-	4B-	4f]	4.dd-
2.r	4r	4r	.
.	.	.	8cc
.	4.d-	4.f	8b-
.	.	.	8a
.	.	.	8b-
.	8c	8e-	8cc
=132	=132	=132	=132
1r	8B-	8d-	4.dd-
.	8A	8c	.
.	8B-	8d-	.
.	8c	8e-	8cc
.	4.d-	4.f	8b-
.	.	.	8a
.	.	.	8b-
.	8c	8e-	8a-
=133	=133	=133	=133
2r	8B-	8d-	4.g-
.	8A	8c	.
.	8B-	8d-	.
.	8A-	8c	8f
4.GG-	8G-	4B-	8e-
.	4B-	.	8d
.	.	4B-	8e-
8FF	8A-	.	8f
=134	=134	=134	=134
8EE-	8G-	4B-	4.g-
8DD	8F	.	.
8EE-	8G-	2.r	.
8FF	8A-	.	8f
2GG-	2B-	.	8e-
.	.	.	8d
.	.	.	8e-
.	.	.	8e
=135	=135	=135	=135
8FF	8A	8f 8A	16f
.	.	.	16cc
8F	8r	8r	16b-
.	.	.	16cc
8r	8A	8c	16a
.	.	.	16b-
8F	8B-	8d	16g
.	.	.	16a
8FF	8c	8e-	16f
.	.	.	16ee-
8F	8r	8r	16cc
.	.	.	16b-
8FF	8c	8e- 8a	16a
.	.	.	16gg
8F	8r	8r	16ff
.	.	.	16ee-
=136	=136	=136	=136
8FF	8B-	8b- 8d	16dd
.	.	.	16ff
8F	8r	8r	16ee
.	.	.	16ff
8r	8B-	8d	16dd
.	.	.	16ff
8F	8c	8e-	16cc
.	.	.	16ff
8FF	8d	8f	16b-
.	.	.	16ff
8F	8r	8r	16gg
.	.	.	16ff
8FF	8b-	8dd	16bb-
.	.	.	16aa
8F	8r	8r	16gg
.	.	.	16ff
=137	=137	=137	=137
8FF	8g	8ee 8b-	16ee
.	.	.	16bb-
8F	8r	8r	16aa
.	.	.	16bb-
8r	8e	8g	16gg
.	.	.	16bb-
8F	8f	8a	16ff
.	.	.	16bb-
8FF	8g	8b-	16ee
.	.	.	16ddd
8F	8r	8r	16ccc
.	.	.	16bb-
8FF	8g	8ee 8b-	16aa
.	.	.	16bb-
8F	8r	8r	16aa
.	.	.	16bb-
=138	=138	=138	=138
[1FF	4f	16ff 16a	4aa
.	.	16ff	.
.	.	16ee	.
.	.	16ff	.
.	4A	16ee-	4ccc
.	.	16ff	.
.	.	16ee-	.
.	.	16ff	.
.	8B-	16dd-	4ddd-
.	.	16ff	.
.	8c	16cc	.
.	.	16ff	.
.	8d-	16b-	4ee
.	.	16dd-	.
.	8d-	16cc	.
.	.	16b-	.
=139	=139	=139	=139
1FF_	4c	16a	4ff
.	.	16ff	.
.	.	16ee	.
.	.	16ff	.
.	4A	16ee-	4ccc
.	.	16ff	.
.	.	16ee-	.
.	.	16ff	.
.	8B-	16dd-	4ddd-
.	.	16ff	.
.	8c	16cc	.
.	.	16ff	.
.	8d-	16b-	4ee
.	.	16dd-	.
.	8d-	16cc	.
.	.	16b-	.
=140	=140	=140	=140
4FF]	4c	8a	8ff
.	.	16f	16ff
.	.	16e	16ee
4.r	4.r	16f	16ff
.	.	16e	16ee
.	.	16f	16ff
.	.	16e	16ee
.	.	8f	8ff
16FF	16F	16f	16f
16EE	16E	16e	16e
16FF	16F	16f	16f
16EE	16E	16e	16e
16FF	16F	16f	16f
16EE	16E	16e	16e
=141	=141	=141	=141
4FF	4F	4f	4f
2.r	2.r	2.r	8r
.	.	.	8ff
.	.	.	8gg
.	.	.	8aa
.	.	.	8bb-
.	.	.	8ccc
=142	=142	=142	=142
2.r	[1b-	[1ff	[1ddd
4A	.	.	.
=143	=143	=143	=143
4.B-	1b-_	1ff_	1ddd_
8d	.	.	.
8e	.	.	.
8f	.	.	.
8c#	.	.	.
8d	.	.	.
=144	=144	=144	=144
8A	1b-]	1ff_	1ddd]
8B-	.	.	.
8E	.	.	.
8F	.	.	.
8E-	.	.	.
8D	.	.	.
8C	.	.	.
8BB-	.	.	.
=145	=145	=145	=145
[1AA	4cc	1ff_	[1eee-
.	2r	.	.
.	4b	.	.
=146	=146	=146	=146
1AA_	4.cc	1ff_	1eee-_
.	8ee-	.	.
.	8b	.	.
.	8cc	.	.
.	8g#	.	.
.	8a	.	.
=147	=147	=147	=147
1AA]	8e	1ff_	1eee-]
.	8f	.	.
.	8B	.	.
.	8c	.	.
.	8B-	.	.
.	8A	.	.
.	8G	.	.
.	8F	.	.
=148	=148	=148	=148
[1AA-	[1f	4ff]	[1ddd
.	.	2r	.
.	.	4aa	.
=149	=149	=149	=149
1AA-_	1f_	4.bb-	1ddd_
.	.	8ff	.
.	.	8ee-	.
.	.	8dd	.
.	.	8cc	.
.	.	8b-	.
=150	=150	=150	=150
1AA-]	1f]	8a	1ddd]
.	.	8b-	.
.	.	8cc-	.
.	.	8b-	.
.	.	8cc-	.
.	.	8b-	.
.	.	8cc-	.
.	.	8b-	.
=151	=151	=151	=151
2GG	2e-	8b-	2eee-
.	.	8a	.
.	.	8b-	.
.	.	8cc	.
2GG-	8B-	8dd-	2eee
.	8A	8cc	.
.	8B-	8dd-	.
.	8d-	8b-	.
=152	=152	=152	=152
4FF	16f	8a	8fff
.	16f	.	.
.	16e	8r	8r
.	16f	.	.
4r	16c	8a	8ccc
.	16f	.	.
.	16B-	8b-	8ddd
.	16f	.	.
4FF	16A	8cc	8eee-
.	16f	.	.
.	16e	8r	8r
.	16f	.	.
4r	16c	8a	8ccc
.	16f	.	.
.	16B-	8b-	8ddd
.	16f	.	.
=153	=153	=153	=153
4FF	16A	8cc	8eee-
.	16f	.	.
.	16e	8r	8r
.	16f	.	.
4r	16c	8a	8ccc
.	16f	.	.
.	16B-	8b-	8ddd
.	16f	.	.
2FF	2A	2cc	16eee-
.	.	.	16ddd
.	.	.	16eee-
.	.	.	16ccc
.	.	.	16bb-
.	.	.	16aa
.	.	.	16ccc
.	.	.	16ee-
=154	=154	=154	=154
4BB-	8B-	16dd	8dd
.	.	16b-	.
.	8r	16a	8r
.	.	16b-	.
4r	8D	16f	8dd
.	.	16g	.
.	8E-	16e-	8ee-
.	.	16f	.
4BB-	8F	16d	8ff
.	.	16b-	.
.	8r	16a	8r
.	.	16b-	.
4r	8D	16f	8dd
.	.	16g	.
.	8E-	16e-	8ee-
.	.	16f	.
=155	=155	=155	=155
4BB-	8F	16d	8ff
.	.	16b-	.
.	8r	16a	8r
.	.	16b-	.
4r	8D	16f	8dd
.	.	16g	.
.	8E-	16e-	8ee-
.	.	16f	.
4BB-	8F	8d	8ff
.	8dd	8ff	8bb-
4r	8dd	8ff	8bb-
.	8dd	8ff	8bb-
=156	=156	=156	=156
1r	16cc	16ee-	16aa
.	16dd	16ff	16bb-
.	16cc	16ee-	16aa
.	16dd	16ff	16bb-
.	16b-	16dd	16gg
.	16cc	16ee-	16aa
.	16b-	16dd	16gg
.	16cc	16ee-	16aa
.	16a	16cc	16ff
.	16b-	16dd	16gg
.	16a	16cc	16ff
.	16b-	16dd	16gg
.	16g	16b-	16ee-
.	16a	16cc	16ff
.	16g	16b-	16ee-
.	16a	16cc	16ff
=157	=157	=157	=157
2r	16f	16a	16dd
.	16g	16b-	16ee-
.	16f	16a	16dd
.	16g	16b-	16ee-
.	16e-	16g	16cc
.	16f	16a	16dd
.	16e-	16g	16cc
.	16f	16a	16dd
8D	8d	8f	4b-
8D	8f	8b-	.
8D	8f	8b-	4aa-
8D	8f	8b-	.
=158	=158	=158	=158
8E-	4g	2b-	2gg
8E-	.	.	.
8E-	2e-	.	.
8E-	.	.	.
8E-	.	4cc	4aa
8E-	.	.	.
8E	4e	4cc#	4bb-
8E	.	.	.
=159	=159	=159	=159
4F	1f	8dd	16bb-
.	.	.	16ff
.	.	8cc#	16aa
.	.	.	16ff
2.r	.	8dd	16bb-
.	.	.	16ff
.	.	8cc#	16aa
.	.	.	16ff
.	.	8dd	16bb-
.	.	.	16ff
.	.	8cc#	16aa
.	.	.	16ff
.	.	8dd	16bb-
.	.	.	16ff
.	.	8cc	16aa
.	.	.	16ff
=160	=160	=160	=160
[1FF	16F	1b- 1d	8bb-
.	16B-	.	.
.	16A	.	8r
.	16B-	.	.
.	16F	.	8ff
.	16d	.	.
.	16c#	.	8r
.	16d	.	.
.	16B-	.	8dd
.	16f	.	.
.	16e	.	8r
.	16f	.	.
.	16d	.	8b-
.	16b-	.	.
.	16a	.	8r
.	16b-	.	.
=161	=161	=161	=161
4FF]	2f	1a	1cc
4r	.	.	.
2F	2e-	.	.
=162	=162	=162	=162
4BB-	4d	8b-	8b-
.	.	8dd	8ff
4.r	4.r	8dd	8ff
.	.	8dd	8ff
.	.	8dd	8ff
8d	8f	8r	8r
8r	8r	8b-	8dd
8B-	8d	8r	8r
=163	=163	=163	=163
8r	8r	8ee-	8gg
8e-	8g	8r	8r
8r	8r	8cc	8ee-
8c	8e-	8r	8r
8r	8r	8a	8cc
8A	8c	8r	8r
8r	8r	8cc	8ff
8F	8A	8r	8r
=164	=164	=164	=164
4B-	8B-	8b-	4dd
.	8dd	8ff	.
2.r	8dd	8ff	4.r
.	8dd	8ff	.
.	8dd	8ff	.
.	8r	8r	8bb-
.	8b-	8dd	8r
.	8r	8r	8aa
=165	=165	=165	=165
1r	8ee-	8gg	8r
.	8r	8r	8gg
.	8cc	8ee-	8r
.	8r	8r	8gg-
.	8a	8cc	8r
.	8r	8r	8ff
.	8f	8a	8r
.	8r	8r	8ee-
=166	=166	=166	=166
8r	4b-	4b-	4dd
8AA-	.	.	.
8AA-	4.r	4.r	4.r
8AA-	.	.	.
4AA-	.	.	.
.	8dd	8ff	8bb- 8b-
4r	8dd	8ff	8bb- 8b-
.	8dd	8ff	8bb- 8b-
=167	=167	=167	=167
8r	4ee-	4gg	4bb- 4b-
8GG	.	.	.
8GG	4.r	4.r	4.r
8GG	.	.	.
2GG-	.	.	.
.	8dd-	8e	8bb-
.	8dd-	8e	8bb-
.	8b-	8e	8bb-
=168	=168	=168	=168
[1FF	4cc	4f	8aa
.	.	.	8ff
.	4.r	4.r	8ff
.	.	.	8ff
.	.	.	8gg
.	8B	8d	8r
.	8B	8d	8ff
.	8B	8d	8r
=169	=169	=169	=169
2FF]	8c	8e-	8r
.	8r	8r	8ee-
.	8B-	8d	8ee-
.	4r	8r	8ee
8r	.	8c	8ff
8FF#	8A	8e-	8r
8FF#	8A	8c	8ee-
8FF#	8A	8cc	8r
=170	=170	=170	=170
8GG	8B-	8b-	8dd
8GG	8r	8r	8r
8r	8e-	8g	8cc
8EE-	8r	8r	8r
8r	8d	8f	8b-
8FF	8r	8r	8r
8r	8c	8e-	8a
8F	8r	8r	8r
=171	=171	=171	=171
8r	8r	8b-	8bb-
8d	8f	8r	8r
8r	8r	8a	8aa
8e-	8g-	8r	8r
8r	8r	8b-	8bb-
8d	8f	8r	8r
8r	8r	8a	8aa
8e-	8g-	8r	8r
=172	=172	=172	=172
8d	8f	8b-	8bb-
8BB-	8d	8b-	8bb-
8E-	8g-	8cc	8aa
8BB-	8g-	8cc	8aa
8D	8f	8b-	8bb-
8BB-	8d	8b-	8bb-
8E-	8g-	8cc	8aa
8BB-	8g-	8cc	8aa
=173	=173	=173	=173
8D	2f	8dd	16b-
.	.	.	16bb-
8BB-	.	8d	16b-
.	.	.	16bb-
8AA	.	8ee-	16cc
.	.	.	16ccc
8A	.	8e-	16cc
.	.	.	16ccc
8AA-	4b-	8ff	16dd
.	.	.	16ddd
8A-	.	8f	16dd
.	.	.	16ddd
8GG	4b-	8gg	16ee-
.	.	.	16eee-
8G	.	8g	16ee-
.	.	.	16eee-
=174	=174	=174	=174
1DD	1b-	1aa-	1fff
=175	=175	=175	=175
[1EE-	2.r	[1B-	[1g
.	4C	.	.
=176	=176	=176	=176
1EE-]	4.D-	1B-_	1g_
.	8C	.	.
.	8D-	.	.
.	8C	.	.
.	8D-	.	.
.	8F	.	.
=177	=177	=177	=177
1EE	1D-	1B-_	4.g]
.	.	.	8f#
.	.	.	8g
.	.	.	8f#
.	.	.	8g
.	.	.	8b-
=178	=178	=178	=178
[1FF	4.D	4.B-]	1f
.	8C#	8A	.
.	8D	8B-	.
.	8C#	8A	.
.	8D	8B-	.
.	8F	8d	.
=179	=179	=179	=179
1FF_	[1E-	[1A	4.c
.	.	.	8B
.	.	.	8c
.	.	.	8B
.	.	.	8c
.	.	.	8e-
=180	=180	=180	=180
1FF_	1E-_	1A_	4.c
.	.	.	8d
.	.	.	8e-
.	.	.	8f#
.	.	.	8g
.	.	.	8f#
=181	=181	=181	=181
1FF]	1E-]	2.A]	4g
.	.	.	4e-
.	.	.	4c
.	.	4c	4A
=182	=182	=182	=182
4BB-	4D	4B-	8B-
.	.	.	8f
4.r	4.r	4.r	8f
.	.	.	8f
.	.	.	8f
8F	8c	8e-	8a
8F	8c	8e-	8a
8F	8c	8e-	8a
=183	=183	=183	=183
4BB-	4d	4d	8b-
.	.	.	8ff
4.r	4.r	4.r	8ff
.	.	.	8ff
.	.	.	8ff
8F	8c	8e-	8a
8F	8c	8e-	8a
8F	8c	8e-	8a
=184	=184	=184	=184
16BB-	16d	16B- 16d	16b-
16BB-	16F	16d 16B-	16a
16BB-	16F	16d 16B-	16b-
16BB-	16F	16B- 16d	16dd
16BB-	16F	16B- 16d	16f
16BB-	16F	16B- 16d	16dd
16BB-	16F	16B- 16d	16cc
16BB-	16F	16B- 16d	16b-
16BB-	16F	16e- 16A	16a
16BB-	16F	16e- 16A	16b
16BB-	16F	16A 16e-	16cc
16BB-	16F	16e- 16A	16b
16BB-	16F	16e- 16A	16cc
16BB-	16F	16e- 16A	16ee-
16BB-	16F	16e- 16A	16dd
16BB-	16F	16A 16e-	16cc
=185	=185	=185	=185
16BB-	16F	16d 16B-	16b-
16BB-	16F	16B- 16d	16a
16BB-	16F	16d 16B-	16b-
16BB-	16F	16d 16B-	16dd
16BB-	16F	16d 16B-	16f
16BB-	16F	16B- 16d	16dd
16BB-	16F	16B- 16d	16cc
16BB-	16F	16B- 16d	16b-
16BB-	16F	16e- 16A	16a
16BB-	16F	16e- 16A	16b
16BB-	16F	16e- 16A	16cc
16BB-	16F	16A 16e-	16b
16BB-	16F	16A 16e-	16cc
16BB-	16F	16A 16e-	16ee-
16BB-	16F	16A 16e-	16dd
16BB-	16F	16A 16e-	16cc
=186	=186	=186	=186
8BB-	8F	8d 8B-	8b-
8r	8r	8r	8r
8BB-	8F	8dd	8bb-
8r	8r	8r	8r
8BB-	8D	8ff	8ddd
8r	8r	8r	8r
8BB-	8F	8dd	8bb-
8r	8r	8r	8r
=187	=187	=187	=187
4BB-	4B-	4b- 4d	4dd 4ff
4r	4r	4r	4r
4BB-	4B- 4D	4b- 4d	4dd 4f
4r	4r	4r	4r
=188	=188	=188	=188
4BB-	4B- 4D	4b- 4d	4b- 4d 4B-
2.r	2.r	2.r	2.r
==	==	==	==
*-	*-	*-	*-
!!!RWG1: This file contains only pitch and duration data.
!!!RWG2: Transposing instruments are not transposed.
!!!RWG3: Spines may have incompatible meters.
!!!RWG4: Durations of rests and tied notes may be interpreted.
!!!RWG: Key is interpreted using the Humdrum key tool.
!!!GTL: 6 Quartetti ("Erdödy")
!!!OPT: Sunrise
!!!AFT: stage1
!!!END: 1997/04/15
!!!KEY: 835014684
!!!EMD: Converted from MuseData to Humdrum Dec 16, 2000, by Andreas Kornstaedt using muse2kern.
!!!EMD: Manual editing by Craig Sapp, Nov 2001
